X: 0
T: Come, Ye Lofty
Z: A. F. M. Custance
Z: Copyright © 2003 by Douglas D. Anderson
Z: Released To The Public Domain
L: 1/4
M: 4/4
Q: 1/4=110
V: P1 name="Staff"
%%MIDI program 1 19
K: Bb
[V: P1]  B3/ B/ A G | F G (D/E/) F | B3/ B/ e d | (G/A/) (B/c/) (B A) | B3/ B/ A G | F G (D/E/) F | B3/ _B/ (B/c/) (d/e/) | d c B2 | B3/ _c/ _d e | _d (_c/B/) (_A/B/) c | B3/ _A/ _G (A/B/) | _A _G F2 | B3/ B/ =A =G | F G (D/E/) F | B3/ B/ B (e/c/) | B A B2|]
w: Come ye lof- ty, come ye low-_ ly Let your songs of glad-_ ness_ ring;_ In a sta- ble lies the Ho-_ ly, In a man-_ ger_ rests the King: See in Ma- ry’s arms re-_ pos_ ing Christ by high- est_ heaven a- dored: Come, your cir- cle round Him clos-_ ing, Pi- ous hearts that_ love the Lord.

